X: 32
T:Preve Castle Hornpipe. FK.32
M:C
L:1/8
Q:160
C:"MS 40 p 2"
S:Kidson's H'pipe MS,early 20thC.
R:Hornpipe
O:England
A:Leeds
N:
Z:vmp.John Bagnall
K:D
FG | AFdF AFdF | BABc dcdB | AFdF AFdF | BAGF E2 FG |!
 AFdF AFdF | BABc dcdB | cdef gecA | d2 f2 d2 :|:!
de |fefg fgaf |gfed dcBA | FA d2 Ad f2 | edcB A2 de |!
 fefg fgaf | gfed dcBA | FAdc Bgec | d2 f2 d2 :|]
